assets/img/icon-close.svg

<svg width="24" height="24" viewBox="0 0 24 24" fill="none" xmlns="http://www.w3.org/2000/svg">
<path fill-rule="evenodd" clip-rule="evenodd" d="M3.09467 3.09467C4.42914 1.7602 6.42603 1.25 9 1.25H15C17.574 1.25 19.5709 1.7602 20.9053 3.09467C22.2398 4.42914 22.75 6.42603 22.75 9V15C22.75 17.574 22.2398 19.5709 20.9053 20.9053C19.5709 22.2398 17.574 22.75 15 22.75H9C6.42603 22.75 4.42914 22.2398 3.09467 20.9053C1.7602 19.5709 1.25 17.574 1.25 15V9C1.25 6.42603 1.7602 4.42914 3.09467 3.09467ZM4.15533 4.15533C3.2398 5.07086 2.75 6.57397 2.75 9V15C2.75 17.426 3.2398 18.9291 4.15533 19.8447C5.07086 20.7602 6.57397 21.25 9 21.25H15C17.426 21.25 18.9291 20.7602 19.8447 19.8447C20.7602 18.9291 21.25 17.426 21.25 15V9C21.25 6.57397 20.7602 5.07086 19.8447 4.15533C18.9291 3.2398 17.426 2.75 15 2.75H9C6.57397 2.75 5.07086 3.2398 4.15533 4.15533ZM8.63967 8.63967C8.93256 8.34678 9.40744 8.34678 9.70033 8.63967L12 10.9393L14.2997 8.63967C14.5926 8.34678 15.0674 8.34678 15.3603 8.63967C15.6532 8.93256 15.6532 9.40744 15.3603 9.70033L13.0607 12L15.3603 14.2997C15.6532 14.5926 15.6532 15.0674 15.3603 15.3603C15.0674 15.6532 14.5926 15.6532 14.2997 15.3603L12 13.0607L9.70033 15.3603C9.40744 15.6532 8.93256 15.6532 8.63967 15.3603C8.34678 15.0674 8.34678 14.5926 8.63967 14.2997L10.9393 12L8.63967 9.70033C8.34678 9.40744 8.34678 8.93256 8.63967 8.63967Z" fill="#9494B0"/>
</svg>

<svg width="24" height="24" fill="none" xmlns="http://www.w3.org/2000/svg"><path fill-rule="evenodd" clip-rule="evenodd" d="M3.095 3.095C4.429 1.76 6.426 1.25 9 1.25h6c2.574 0 4.57.51 5.905 1.845C22.24 4.429 22.75 6.426 22.75 9v6c0 2.574-.51 4.57-1.845 5.905C19.571 22.24 17.574 22.75 15 22.75H9c-2.574 0-4.57-.51-5.905-1.845C1.76 19.571 1.25 17.574 1.25 15V9c0-2.574.51-4.57 1.845-5.905zm1.06 1.06C3.24 5.071 2.75 6.574 2.75 9v6c0 2.426.49 3.93 1.405 4.845.916.915 2.419 1.405 4.845 1.405h6c2.426 0 3.93-.49 4.845-1.405.915-.916 1.405-2.419 1.405-4.845V9c0-2.426-.49-3.93-1.405-4.845C18.929 3.24 17.426 2.75 15 2.75H9c-2.426 0-3.93.49-4.845 1.405zM8.64 8.64a.75.75 0 011.06 0l2.3 2.3 2.3-2.3a.75.75 0 111.06 1.06l-2.3 2.3 2.3 2.3a.75.75 0 11-1.06 1.06l-2.3-2.3-2.3 2.3a.75.75 0 01-1.06-1.06l2.3-2.3-2.3-2.3a.75.75 0 010-1.06z" fill="#9494B0"/></svg>
